symbols/web/credit_card_off/materialsymbolsoutlined/credit_card_off_wght600grad200_40px.svg

<svg xmlns="http://www.w3.org/2000/svg" height="40" width="40"><path d="m37.208 32.25-3.5-3.458v-9.167H24.5l-6.375-6.375h15.583V9.625H14.542L10.5 5.583h23.208q1.667 0 2.854 1.209Q37.75 8 37.75 9.625v20.75q0 .542-.167 1-.166.458-.375.875ZM16.292 20.542Zm7.875-1.334Zm-8.875.417h-9v10.75h19.791Zm19.125 19.042-4.292-4.25H6.292q-1.667 0-2.854-1.209Q2.25 32 2.25 30.375V9.625q0-1.5.979-2.625t2.396-1.333h.542l4 3.958H6.292v3.625h2.625L.708 5l2.459-2.417 33.625 33.625Z"/></svg>

<svg xmlns="http://www.w3.org/2000/svg" height="40" width="40"><path d="M34.417 38.667 30.083 34.417H6.292Q4.625 34.417 3.438 33.208Q2.25 32 2.25 30.375V9.625Q2.25 9 2.458 8.396Q2.667 7.792 3.042 7.292L0.708 5L3.167 2.583L36.792 36.208ZM6.292 30.375H26.083L15.292 19.625H6.292V30.375Q6.292 30.375 6.292 30.375Q6.292 30.375 6.292 30.375ZM6.292 13.25H8.917L6.458 10.75L6.292 10.583Q6.292 10.583 6.292 10.583Q6.292 10.583 6.292 10.583ZM37.208 32.25 33.708 28.792V19.625H24.5L18.125 13.25H33.708V9.625Q33.708 9.625 33.708 9.625Q33.708 9.625 33.708 9.625H14.542L10.5 5.583H33.708Q35.375 5.583 36.562 6.792Q37.75 8 37.75 9.625V30.375Q37.75 30.917 37.583 31.375Q37.417 31.833 37.208 32.25ZM16.292 20.542Q16.292 20.542 16.292 20.542Q16.292 20.542 16.292 20.542Q16.292 20.542 16.292 20.542Q16.292 20.542 16.292 20.542ZM24.167 19.208Q24.167 19.208 24.167 19.208Q24.167 19.208 24.167 19.208Z"/></svg>
